public/icons/icon-shopping-bag.svg

<svg width="25" height="25" viewBox="0 0 25 25" fill="none" xmlns="http://www.w3.org/2000/svg">
<path fill-rule="evenodd" clip-rule="evenodd" d="M19.0107 4H5.01074C4.45846 4 4.01074 4.44771 4.01074 5V19C4.01074 19.5523 4.45846 20 5.01074 20H19.0107C19.563 20 20.0107 19.5523 20.0107 19V5C20.0107 4.44772 19.563 4 19.0107 4ZM22.0107 5C22.0107 3.34315 20.6676 2 19.0107 2H5.01074C3.35389 2 2.01074 3.34315 2.01074 5V19C2.01074 20.6569 3.35389 22 5.01074 22H19.0107C20.6676 22 22.0107 20.6569 22.0107 19V5ZM12.0107 12C14.7722 12 17.0107 9.31371 17.0107 6H15.0107C15.0107 8.56606 13.3417 10 12.0107 10C10.6798 10 9.01074 8.56606 9.01074 6H7.01074C7.01074 9.31371 9.24932 12 12.0107 12Z" fill="#273D63"/>
</svg>

<svg viewBox="0 0 25 25" fill="none" xmlns="http://www.w3.org/2000/svg"><path fill-rule="evenodd" clip-rule="evenodd" d="M19.01 4h-14a1 1 0 0 0-1 1v14a1 1 0 0 0 1 1h14a1 1 0 0 0 1-1V5a1 1 0 0 0-1-1zm3 1a3 3 0 0 0-3-3h-14a3 3 0 0 0-3 3v14a3 3 0 0 0 3 3h14a3 3 0 0 0 3-3V5zm-10 7c2.762 0 5-2.686 5-6h-2c0 2.566-1.668 4-3 4-1.33 0-3-1.434-3-4h-2c0 3.314 2.24 6 5 6z" fill="#273D63"/></svg>
